svg/OSM-icons/emergency #fe0000 °ffffff !label=enemergency,deNotfälle/17008;emergency=fire_extinguisher;!label=enfire extinguisher,deFeuer- löscher.svg

<svg xmlns="http://www.w3.org/2000/svg" viewBox="0 0 580 580" enable-background="new 0 0 580 580"><path fill="#111" stroke="#eee" stroke-width="3.408" d="m66.28 1.768c-41.34 0-64.57 21.371-64.57 65.04v450.12c0 40.844 20.895 62.23 62.19 62.23h452.02c41.31 0 62.23-20.315 62.23-62.23v-450.12c0-42.602-20.923-65.04-63.52-65.04-.003 0-448.5-.143-448.35 0z"/><path fill="#fff" d="m418.08 58.17c-21.963-10.981-42.972-11.537-46.96-11.537h-97.35-97.35v92.56c-38.41 18.604-64.897 57.958-64.897 103.5v175.74c0 63.47 51.46 114.93 114.93 114.93s114.93-51.46 114.93-114.93v-175.74c0-46.607-27.748-86.74-67.62-104.77v-26.384h97.35c.086 0 9.41.423 17.938 4.687 7.176 3.588 14.511 9.692 14.511 27.763v162.24h64.898v-162.25c-.0001-39.09-17.896-69.56-50.39-85.81m-111.86 215.6v129.8h-146.02v-129.8h146.02"/></svg>

<?xml version="1.0" encoding="utf-8"?>
<!-- Generator: Adobe Illustrator 15.0.0, SVG Export Plug-In . SVG Version: 6.00 Build 0)  -->
<!DOCTYPE svg PUBLIC "-//W3C//DTD SVG 1.1//EN" "http://www.w3.org/Graphics/SVG/1.1/DTD/svg11.dtd">
<svg version="1.1" xmlns="http://www.w3.org/2000/svg" xmlns:xlink="http://www.w3.org/1999/xlink" x="0px" y="0px" width="580px"
	 height="580px" viewBox="0 0 580 580" enable-background="new 0 0 580 580" xml:space="preserve">
<g id="Layer_1">
	<g id="Layer_2">
		<g id="g1327">
			<path id="path1329" fill="#111111" stroke="#EEEEEE" stroke-width="3.408" d="M66.275,1.768
				c-41.335,0-64.571,21.371-64.571,65.036v450.123c0,40.844,20.895,62.229,62.192,62.229h452.024
				c41.307,0,62.229-20.315,62.229-62.229V66.804c0-42.602-20.923-65.036-63.521-65.036C514.625,1.768,66.133,1.625,66.275,1.768z"
				/>
		</g>
	</g>
</g>
<g id="Layer_2_1_">
	<path fill="#FFFFFF" d="M418.082,58.171c-21.963-10.981-42.972-11.537-46.96-11.537h-97.347v-0.001h-97.347v92.562
		c-38.408,18.604-64.897,57.958-64.897,103.495v175.744c0,63.472,51.462,114.934,114.934,114.934s114.934-51.462,114.934-114.934
		V242.689c0-46.607-27.748-86.738-67.623-104.774v-26.384h97.347c0.086,0,9.41,0.423,17.938,4.687
		c7.176,3.588,14.511,9.692,14.511,27.763v162.244h64.898V143.98C468.469,104.891,450.574,74.417,418.082,58.171z M306.224,273.775
		v129.796H160.204V273.775H306.224z"/>
</g>
</svg>
